icons/circle/48/xt7-player-mpv.svg

<svg xmlns="http://www.w3.org/2000/svg" xmlns:xlink="http://www.w3.org/1999/xlink" viewBox="0 0 48 48">
 <defs>
  <linearGradient id="linearGradient4158">
   <stop style="stop-color:#565656;stop-opacity:1"/>
   <stop offset="1" style="stop-color:#5c5c5c;stop-opacity:1"/>
  </linearGradient>
  <linearGradient id="linearGradient3764" x1="1" x2="47" gradientUnits="userSpaceOnUse" gradientTransform="matrix(0,-1,1,0,-1.5e-6,47.999998)">
   <stop style="stop-color:#ebebc9;stop-opacity:1"/>
   <stop offset="1" style="stop-color:#f0f0d8;stop-opacity:1"/>
  </linearGradient>
  <linearGradient xlink:href="#linearGradient4158" id="linearGradient4154" y1="39" x2="0" y2="9" gradientUnits="userSpaceOnUse"/>
  <linearGradient xlink:href="#linearGradient4158" id="linearGradient4156" y1="11.01" x2="0" y2="2.54" gradientUnits="userSpaceOnUse"/>
 </defs>
 <g>
  <path d="m 36.31 5 c 5.859 4.062 9.688 10.831 9.688 18.5 c 0 12.426 -10.07 22.5 -22.5 22.5 c -7.669 0 -14.438 -3.828 -18.5 -9.688 c 1.037 1.822 2.306 3.499 3.781 4.969 c 4.085 3.712 9.514 5.969 15.469 5.969 c 12.703 0 23 -10.298 23 -23 c 0 -5.954 -2.256 -11.384 -5.969 -15.469 c -1.469 -1.475 -3.147 -2.744 -4.969 -3.781 z m 4.969 3.781 c 3.854 4.113 6.219 9.637 6.219 15.719 c 0 12.703 -10.297 23 -23 23 c -6.081 0 -11.606 -2.364 -15.719 -6.219 c 4.16 4.144 9.883 6.719 16.219 6.719 c 12.703 0 23 -10.298 23 -23 c 0 -6.335 -2.575 -12.06 -6.719 -16.219 z" style="opacity:0.05"/>
  <path d="m 41.28 8.781 c 3.712 4.085 5.969 9.514 5.969 15.469 c 0 12.703 -10.297 23 -23 23 c -5.954 0 -11.384 -2.256 -15.469 -5.969 c 4.113 3.854 9.637 6.219 15.719 6.219 c 12.703 0 23 -10.298 23 -23 c 0 -6.081 -2.364 -11.606 -6.219 -15.719 z" style="opacity:0.1"/>
  <path d="m 31.25 2.375 c 8.615 3.154 14.75 11.417 14.75 21.13 c 0 12.426 -10.07 22.5 -22.5 22.5 c -9.708 0 -17.971 -6.135 -21.12 -14.75 a 23 23 0 0 0 44.875 -7 a 23 23 0 0 0 -16 -21.875 z" style="opacity:0.2"/>
 </g>
 <g>
  <path d="m 24 1 c 12.703 0 23 10.297 23 23 c 0 12.703 -10.297 23 -23 23 -12.703 0 -23 -10.297 -23 -23 0 -12.703 10.297 -23 23 -23 z" style="fill:url(#linearGradient3764);fill-opacity:1"/>
 </g>
 <g>
  <path d="m 40.03 7.531 c 3.712 4.084 5.969 9.514 5.969 15.469 0 12.703 -10.297 23 -23 23 c -5.954 0 -11.384 -2.256 -15.469 -5.969 4.178 4.291 10.01 6.969 16.469 6.969 c 12.703 0 23 -10.298 23 -23 0 -6.462 -2.677 -12.291 -6.969 -16.469 z" style="opacity:0.1"/>
 </g>
 <g transform="matrix(3.543307,0,0,3.543307,2.2e-7,-3.92723e-4)">
  <path d="m 7.06 2.822 c -2.338 0 -4.233 1.895 -4.233 4.233 0 2.338 1.895 4.233 4.233 4.233 2.338 0 4.233 -1.895 4.233 -4.233 0 -2.338 -1.895 -4.233 -4.233 -4.233 z m 0 0.564 c 2.026 0 3.669 1.643 3.669 3.669 0 2.026 -1.643 3.669 -3.669 3.669 -2.026 0 -3.669 -1.643 -3.669 -3.669 0 -2.026 1.643 -3.669 3.669 -3.669 z m -1.693 1.128 0 5.08 4.515 -2.54 z" style="fill:#000;opacity:0.1;fill-opacity:1;stroke:none;fill-rule:nonzero"/>
  <path d="m 5.08 4.233 0 5.08 4.516 -2.54" style="fill:url(#linearGradient4156);fill-opacity:1;stroke:none;fill-rule:nonzero"/>
 </g>
 <path d="M 24 9 A 15 15 0 0 0 9 24 A 15 15 0 0 0 24 39 A 15 15 0 0 0 39 24 A 15 15 0 0 0 24 9 z M 24 11 A 13 13 0 0 1 37 24 A 13 13 0 0 1 24 37 A 13 13 0 0 1 11 24 A 13 13 0 0 1 24 11 z" style="fill:url(#linearGradient4154);opacity:1;fill-opacity:1;stroke:none"/>
</svg>

<svg xmlns="http://www.w3.org/2000/svg" xmlns:xlink="http://www.w3.org/1999/xlink" viewBox="0 0 48 48">
  <defs>
    <linearGradient id="a">
      <stop stop-color="#565656"/>
      <stop offset="1" stop-color="#5c5c5c"/>
    </linearGradient>
    <linearGradient id="b" x1="1" x2="47" gradientUnits="userSpaceOnUse" gradientTransform="rotate(-90 24 24)">
      <stop stop-color="#ebebc9"/>
      <stop offset="1" stop-color="#f0f0d8"/>
    </linearGradient>
    <linearGradient xlink:href="#a" id="d" y1="39" x2="0" y2="9" gradientUnits="userSpaceOnUse"/>
    <linearGradient xlink:href="#a" id="c" y1="11.01" x2="0" y2="2.54" gradientUnits="userSpaceOnUse"/>
  </defs>
  <path d="M36.31 5c5.859 4.062 9.688 10.831 9.688 18.5 0 12.426-10.07 22.5-22.5 22.5-7.669 0-14.438-3.828-18.5-9.688a23.24 23.24 0 0 0 3.781 4.969 22.923 22.923 0 0 0 15.469 5.969c12.703 0 23-10.298 23-23a22.92 22.92 0 0 0-5.969-15.469A23.216 23.216 0 0 0 36.31 5zm4.969 3.781A22.911 22.911 0 0 1 47.498 24.5c0 12.703-10.297 23-23 23a22.909 22.909 0 0 1-15.719-6.219C12.939 45.425 18.662 48 24.998 48c12.703 0 23-10.298 23-23 0-6.335-2.575-12.06-6.719-16.219z" opacity=".05"/>
  <path d="M41.28 8.781a22.923 22.923 0 0 1 5.969 15.469c0 12.703-10.297 23-23 23A22.92 22.92 0 0 1 8.78 41.281 22.911 22.911 0 0 0 24.499 47.5c12.703 0 23-10.298 23-23A22.909 22.909 0 0 0 41.28 8.781z" opacity=".1"/>
  <path d="M31.25 2.375C39.865 5.529 46 13.792 46 23.505c0 12.426-10.07 22.5-22.5 22.5-9.708 0-17.971-6.135-21.12-14.75a23 23 0 0 0 44.875-7 23 23 0 0 0-16-21.875z" opacity=".2"/>
  <path d="M24 1c12.703 0 23 10.297 23 23S36.703 47 24 47 1 36.703 1 24 11.297 1 24 1z" fill="url(#b)"/>
  <path d="M40.03 7.531A22.922 22.922 0 0 1 45.999 23c0 12.703-10.297 23-23 23A22.92 22.92 0 0 1 7.53 40.031C11.708 44.322 17.54 47 23.999 47c12.703 0 23-10.298 23-23 0-6.462-2.677-12.291-6.969-16.469z" opacity=".1"/>
  <g>
    <path d="M25.016 9.999c-8.285 0-15 6.714-15 14.999 0 8.284 6.715 14.998 15 14.998 8.284 0 14.999-6.714 14.999-14.998 0-8.285-6.715-15-15-15zm0 1.998c7.178 0 13 5.822 13 13 0 7.18-5.822 13.001-13 13.001-7.179 0-13-5.822-13-13 0-7.18 5.821-13 13-13zm-6 3.997v18l15.999-9z" opacity=".1"/>
    <path d="M5.08 4.233v5.08l4.516-2.54" fill="url(#c)" transform="matrix(3.5433 0 0 3.5433 0 0)"/>
  </g>
  <path d="M24 9A15 15 0 0 0 9 24a15 15 0 0 0 15 15 15 15 0 0 0 15-15A15 15 0 0 0 24 9zm0 2a13 13 0 0 1 13 13 13 13 0 0 1-13 13 13 13 0 0 1-13-13 13 13 0 0 1 13-13z" fill="url(#d)"/>
</svg>
